icons/thumbsup-24.svg

<svg xmlns="http://www.w3.org/2000/svg" width="24" height="24" viewBox="0 0 24 24"><path d="M12.596 2.043c1.075.076 2.059.281 2.743.956.698.688.92 1.696.92 2.941 0 .432-.057.955-.117 1.438-.026.2-.051.392-.076.572l-.056.429h2.05c.752 0 1.446.108 2.036.404.612.306 1.062.787 1.355 1.431.551 1.214.542 3.008.223 5.394l-.051.39c-.134 1.01-.248 1.872-.396 2.58-.166.795-.394 1.496-.816 2.05-.89 1.168-2.395 1.372-4.583 1.372-2.331 0-4.08-.418-5.544-.824l-.602-.17c-1.023-.29-1.852-.526-2.69-.586A1.75 1.75 0 015.25 22h-1.5A1.75 1.75 0 012 20.25V9.75C2 8.784 2.784 8 3.75 8h1.5a1.75 1.75 0 011.746 1.633 1.85 1.85 0 00.523-.131c.961-.415 2.774-1.534 2.774-4.2V4.249c0-1.22 1.002-2.298 2.303-2.206zM7 18.918c1.059.064 2.079.355 3.118.652l.568.16c1.406.39 3.006.77 5.142.77 2.277 0 3.004-.274 3.39-.781.216-.283.388-.718.54-1.448.136-.65.242-1.45.379-2.477l.05-.384c.32-2.4.253-3.795-.102-4.575-.16-.352-.375-.568-.66-.711-.305-.153-.74-.245-1.365-.245h-2.37c-.681 0-1.293-.57-1.211-1.328.026-.243.065-.537.105-.834l.07-.527c.06-.482.105-.921.105-1.25 0-1.125-.213-1.617-.473-1.873-.275-.27-.774-.455-1.795-.528-.351-.024-.698.274-.698.71v1.053c0 3.55-2.488 5.063-3.68 5.577-.372.16-.754.232-1.113.26zM3.75 20.5h1.5a.25.25 0 00.25-.25V9.75a.25.25 0 00-.25-.25h-1.5a.25.25 0 00-.25.25v10.5c0 .138.112.25.25.25z"/></svg>

<svg xmlns="http://www.w3.org/2000/svg" width="24" height="24" viewBox="0 0 24 24">
  <defs/>
  <path d="M12.596,2.043 C13.671,2.119 14.655,2.324 15.339,2.999 C16.037,3.687 16.259,4.695 16.259,5.94 C16.259,6.372 16.202,6.895 16.142,7.378 C16.116,7.578 16.091,7.77 16.066,7.95 L16.01,8.379 L18.06,8.379 C18.812,8.379 19.506,8.487 20.096,8.783 C20.708,9.089 21.158,9.57 21.451,10.214 C22.002,11.428 21.993,13.222 21.674,15.608 L21.623,15.998 C21.489,17.008 21.375,17.87 21.227,18.578 C21.061,19.373 20.833,20.074 20.411,20.628 C19.521,21.796 18.016,22 15.828,22 C13.497,22 11.748,21.582 10.284,21.176 L9.682,21.006 C8.659,20.716 7.83,20.48 6.992,20.42 C6.904,21.316 6.151,22 5.25,22 L3.75,22 C2.784,22 2,21.217 2,20.25 L2,9.75 C2,8.784 2.784,8 3.75,8 L5.25,8 C6.171,8 6.934,8.714 6.996,9.633 C7.176,9.615 7.352,9.571 7.519,9.502 C8.48,9.087 10.293,7.968 10.293,5.302 L10.293,4.249 C10.293,3.029 11.295,1.951 12.596,2.043 Z M7,18.918 C8.059,18.982 9.079,19.273 10.118,19.57 L10.686,19.73 C12.092,20.12 13.692,20.5 15.828,20.5 C18.105,20.5 18.832,20.226 19.218,19.719 C19.434,19.436 19.606,19.001 19.758,18.271 C19.894,17.621 20,16.821 20.137,15.794 L20.187,15.41 C20.507,13.01 20.44,11.615 20.085,10.835 C19.925,10.483 19.71,10.267 19.425,10.124 C19.12,9.971 18.685,9.879 18.06,9.879 L15.69,9.879 C15.009,9.879 14.397,9.309 14.479,8.551 C14.505,8.308 14.544,8.014 14.584,7.717 L14.654,7.19 C14.714,6.708 14.759,6.269 14.759,5.94 C14.759,4.815 14.546,4.323 14.286,4.067 C14.011,3.797 13.512,3.612 12.491,3.539 C12.14,3.515 11.793,3.813 11.793,4.249 L11.793,5.302 C11.793,8.852 9.305,10.365 8.113,10.879 C7.741,11.039 7.359,11.111 7,11.139 Z M3.75,20.5 L5.25,20.5 C5.388,20.5 5.5,20.388 5.5,20.25 L5.5,9.75 C5.5,9.612 5.388,9.5 5.25,9.5 L3.75,9.5 C3.612,9.5 3.5,9.612 3.5,9.75 L3.5,20.25 C3.5,20.388 3.612,20.5 3.75,20.5 Z"/>
</svg>
